src/icons/solid/symbols/pen.svg

<svg width="24" height="24" viewBox="0 0 24 24" fill="none" xmlns="http://www.w3.org/2000/svg">
<g clip-path="url(#clip0_402_733)">
<path d="M3.56738 16.1904C3.64244 16.2112 3.71158 16.2505 3.76758 16.3047L7.6709 20.2324C7.73278 20.289 7.77818 20.3616 7.80078 20.4424C7.82338 20.5232 7.82239 20.6089 7.79883 20.6895C7.77933 20.7649 7.74206 20.8351 7.68945 20.8926C7.63686 20.95 7.57045 20.9935 7.49707 21.0195L1.62793 22.9785C1.54051 23.0065 1.44641 23.0076 1.3584 22.9814C1.27055 22.9554 1.19278 22.903 1.13477 22.832C1.07424 22.7726 1.03114 22.6969 1.01172 22.6143C0.992331 22.5318 0.996825 22.4454 1.02441 22.3652L3.00879 16.4883C3.03163 16.413 3.07395 16.3451 3.13184 16.292C3.18972 16.2389 3.26108 16.2018 3.33789 16.1855C3.41354 16.168 3.49252 16.1697 3.56738 16.1904ZM15.501 4.08984C15.622 4.08984 15.7382 4.13741 15.8252 4.22168L19.7383 8.13965C19.8226 8.22675 19.8701 8.34353 19.8701 8.46484C19.8701 8.58599 19.8225 8.70204 19.7383 8.78906L9.29785 19.2344C9.25688 19.278 9.20723 19.3131 9.15234 19.3369C9.09747 19.3606 9.03829 19.373 8.97852 19.373C8.91855 19.373 8.85874 19.3608 8.80371 19.3369C8.74876 19.3131 8.6992 19.2781 8.6582 19.2344L4.74512 15.3164C4.70235 15.2739 4.66869 15.2227 4.64551 15.167C4.62238 15.1113 4.61035 15.0515 4.61035 14.9912C4.61036 14.9309 4.62235 14.8711 4.64551 14.8154C4.6687 14.7597 4.7023 14.7086 4.74512 14.666L15.1768 4.22168C15.2637 4.13735 15.3799 4.08988 15.501 4.08984ZM19.7656 1C20.6181 1.00001 21.4373 1.33117 22.0508 1.92383C22.3515 2.22396 22.5901 2.58102 22.7529 2.97363C22.9157 3.36634 23 3.78769 23 4.21289C23 4.63793 22.9156 5.0586 22.7529 5.45117C22.5901 5.84387 22.3515 6.20079 22.0508 6.50098L21.3838 7.1416C21.2973 7.22335 21.1824 7.26953 21.0635 7.26953C20.9446 7.26946 20.8306 7.22327 20.7441 7.1416L16.8311 3.22363C16.7883 3.18112 16.7536 3.13089 16.7305 3.0752C16.7073 3.01955 16.6963 2.95969 16.6963 2.89941C16.6963 2.83899 16.7073 2.77843 16.7305 2.72266C16.7537 2.66696 16.7883 2.61672 16.8311 2.57422L17.4805 1.92383C18.0939 1.33118 18.9132 1 19.7656 1Z" fill="#212121"/>
</g>
<defs>
<clipPath id="clip0_402_733">
<rect width="24" height="24" fill="white"/>
</clipPath>
</defs>
</svg>

<svg xmlns="http://www.w3.org/2000/svg" width="24" height="24" fill="none" viewBox="0 0 24 24"><g clip-path="url(#a)"><path fill="currentColor" d="M3.567 16.19c.075.021.145.06.2.115l3.904 3.927a.45.45 0 0 1 .128.457.48.48 0 0 1-.302.33l-5.87 1.96a.46.46 0 0 1-.492-.147.45.45 0 0 1-.11-.467l1.984-5.877a.44.44 0 0 1 .329-.302.5.5 0 0 1 .23.004m11.934-12.1c.121 0 .237.047.324.132l3.913 3.918a.47.47 0 0 1 0 .65L9.298 19.233a.44.44 0 0 1-.494.103.4.4 0 0 1-.146-.103l-3.913-3.918a.46.46 0 0 1 0-.65L15.177 4.222a.47.47 0 0 1 .324-.132M19.766 1c.852 0 1.671.331 2.285.924a3.233 3.233 0 0 1 0 4.577l-.667.64a.467.467 0 0 1-.64 0l-3.913-3.917a.457.457 0 0 1 0-.65l.65-.65A3.3 3.3 0 0 1 19.766 1"/></g><defs><clipPath id="a"><path fill="currentColor" d="M0 0h24v24H0z"/></clipPath></defs></svg>
